img/logo_htmlacademy 1.svg

<svg width="199" height="57" viewBox="0 0 199 57" fill="none" xmlns="http://www.w3.org/2000/svg">
<g clip-path="url(#clip0_42437_0)">
<path d="M0 22.2284V26.6741H4.25322V22.2284H0Z" fill="black"/>
<path d="M20.1536 7.81699C17.4538 7.81699 15.2717 9.03953 13.9033 10.8178H13.7553V0H10.2418V26.674H13.7553V17.5234C13.7553 13.8557 16.0484 11.2253 19.414 11.2253C22.5946 11.2253 24.4438 13.5964 24.4438 16.7824V26.674H27.9574V16.1526C27.9574 11.0771 24.8137 7.81699 20.1536 7.81699Z" fill="black"/>
<path d="M46.0591 8.3357H37.7377V1.85242H34.2242V8.3357H30.8956V11.744H34.2242V22.0802C34.2242 25.044 35.8885 26.6741 38.8843 26.6741H46.0591V23.2287H39.587C38.4034 23.2287 37.7377 22.5619 37.7377 21.4134V11.744H46.0591V8.3357Z" fill="black"/>
<path d="M71.1582 7.854C68.3471 7.854 66.2023 9.22475 65.0188 11.4106H64.9078C63.8352 9.26182 61.8381 7.854 59.1013 7.854C56.6604 7.854 54.811 9.15065 53.7016 10.966H53.5535V8.33563H50.1881V26.674H53.7016V17.264C53.7016 13.8186 55.5135 11.2994 58.2507 11.2253C60.8394 11.1512 62.3558 13.0036 62.3558 15.7821V26.674H65.8694V16.9676C65.8694 12.8554 68.3104 11.2253 70.4185 11.2253C72.9704 11.2253 74.4869 13.0036 74.4869 15.7821V26.674H78.0001V15.4117C78.0001 10.966 75.4853 7.854 71.1582 7.854Z" fill="black"/>
<path d="M82.7619 21.932C82.7619 24.9328 84.4632 26.674 87.6067 26.674H91.0832V23.2657H88.1245C86.9409 23.2657 86.2751 22.5988 86.2751 21.4504V0H82.7619V21.932Z" fill="black"/>
<path d="M50.0178 34.0079H49.8697C48.4988 32.1664 46.2761 30.8774 43.3119 30.8406C37.8653 30.7669 33.975 34.7813 33.975 40.4531C33.975 46.1617 37.9394 50.1763 43.2748 50.1026C46.3128 50.0656 48.4988 48.703 49.8697 46.7509H50.0178V49.5867H53.501V31.3562H50.0178V34.0079ZM43.7934 46.7143C39.9402 46.7143 37.4948 43.915 37.4948 40.4531C37.4948 36.9911 39.9402 34.1921 43.7934 34.1921C47.5356 34.1921 49.9811 36.9911 49.9811 40.4531C49.9811 43.8784 47.5356 46.7143 43.7934 46.7143Z" fill="black"/>
<path d="M76.5015 37.9855C75.6492 33.8606 71.9813 30.8406 67.1648 30.8406C61.3479 30.8406 57.4576 35.076 57.4576 40.4531C57.4576 45.8301 61.3479 50.1026 67.1648 50.1026C71.9813 50.1026 75.6492 47.0088 76.5015 42.847H72.8336C72.0926 45.1673 69.9066 46.7509 67.2019 46.7509C63.4226 46.7509 60.977 43.915 60.977 40.4531C60.977 36.9911 63.4226 34.1921 67.2019 34.1921C70.0175 34.1921 72.0926 35.8494 72.8336 37.9855H76.5015Z" fill="black"/>
<path d="M95.3185 34.0079H95.1704C93.7995 32.1664 91.5763 30.8774 88.6121 30.8406C83.1657 30.7669 79.2754 34.7813 79.2754 40.4531C79.2754 46.1617 83.24 50.1763 88.575 50.1026C91.6134 50.0656 93.7995 48.703 95.1704 46.7509H95.3185V49.5867H98.8012V31.3562H95.3185V34.0079ZM89.094 46.7143C85.2404 46.7143 82.7953 43.915 82.7953 40.4531C82.7953 36.9911 85.2404 34.1921 89.094 34.1921C92.8362 34.1921 95.2814 36.9911 95.2814 40.4531C95.2814 43.8784 92.8362 46.7143 89.094 46.7143Z" fill="black"/>
<path d="M118.801 34.192H118.653C117.282 32.24 114.984 30.8773 112.057 30.8405C106.722 30.7668 102.758 34.7813 102.758 40.4899C102.758 46.1617 106.648 50.1762 112.095 50.1026C114.984 50.0655 117.282 48.7766 118.616 46.9351H118.801V49.5866H122.284V23.0695H118.801V34.192ZM112.576 46.7508C108.723 46.7508 106.278 43.952 106.278 40.4899C106.278 37.0279 108.723 34.2288 112.576 34.2288C116.319 34.2288 118.764 37.0647 118.764 40.4899C118.764 43.952 116.319 46.7508 112.576 46.7508Z" fill="black"/>
<path d="M135.544 30.8406C129.913 30.8406 126.059 35.1496 126.059 40.4899C126.059 45.6828 129.69 50.1026 135.618 50.1026C139.916 50.1026 143.362 47.7823 144.585 43.915H140.917C140.102 45.6462 138.138 46.7509 135.767 46.7509C132.432 46.7509 130.061 44.5412 129.801 41.7053H144.955C145.437 35.6284 141.621 30.8406 135.544 30.8406ZM135.47 34.1921C138.397 34.1921 140.583 35.9967 141.139 38.6116H129.876C130.394 36.0335 132.58 34.1921 135.47 34.1921Z" fill="black"/>
<path d="M169.926 30.8773C167.11 30.8773 164.961 32.24 163.776 34.4129H163.664C162.59 32.2768 160.589 30.8773 157.847 30.8773C155.402 30.8773 153.55 32.1664 152.438 33.971H152.29V31.3561H148.918V49.5866H152.438V40.232C152.438 36.8069 154.254 34.3025 156.996 34.2288C159.589 34.1552 161.108 35.9966 161.108 38.7588V49.5866H164.628V39.9374C164.628 35.8493 167.073 34.2288 169.185 34.2288C171.742 34.2288 173.261 35.9966 173.261 38.7588V49.5866H176.78V38.3905C176.78 33.971 174.261 30.8773 169.926 30.8773Z" fill="black"/>
<path d="M189.381 46.6771L183.083 31.3561H179.192L187.566 51.3179L187.529 51.3915C186.936 52.9014 186.269 53.4539 184.639 53.4539H180.304V56.9525H184.639C187.825 56.9525 189.529 55.5163 190.715 52.4225L198.792 31.3561H195.198L189.381 46.6771Z" fill="black"/>
</g>
<defs>
<clipPath id="clip0_42437_0">
<rect width="199" height="57" fill="white"/>
</clipPath>
</defs>
</svg>

<svg xmlns="http://www.w3.org/2000/svg" width="199" height="57" fill="none"><g fill="#000" clip-path="url(#a)" opacity=".2"><path d="M0 22.228v4.446h4.253v-4.446H0ZM20.154 7.817c-2.7 0-4.882 1.223-6.25 3h-.149V0h-3.513v26.674h3.513v-9.15c0-3.668 2.293-6.299 5.659-6.299 3.18 0 5.03 2.371 5.03 5.557v9.892h3.513V16.153c0-5.076-3.143-8.336-7.803-8.336ZM46.06 8.336h-8.322V1.852h-3.514v6.484h-3.328v3.408h3.328V22.08c0 2.964 1.665 4.594 4.66 4.594h7.175V23.23h-6.472c-1.184 0-1.85-.667-1.85-1.816v-9.669h8.322V8.336ZM71.158 7.854c-2.81 0-4.956 1.37-6.14 3.557h-.11c-1.073-2.15-3.07-3.557-5.807-3.557-2.44 0-4.29 1.297-5.4 3.112h-.148v-2.63h-3.365v18.338h3.514v-9.41c0-3.445 1.812-5.965 4.549-6.039 2.588-.074 4.105 1.779 4.105 4.557v10.892h3.513v-9.706c0-4.113 2.441-5.743 4.55-5.743 2.551 0 4.068 1.779 4.068 4.557v10.892H78V15.412c0-4.446-2.515-7.558-6.842-7.558ZM82.762 21.932c0 3 1.701 4.742 4.845 4.742h3.476v-3.408h-2.959c-1.183 0-1.849-.667-1.849-1.816V0h-3.513v21.932ZM50.018 34.008h-.148c-1.371-1.842-3.594-3.13-6.558-3.167-5.447-.074-9.337 3.94-9.337 9.612 0 5.709 3.964 9.723 9.3 9.65 3.038-.037 5.224-1.4 6.595-3.352h.148v2.836H53.5v-18.23h-3.483v2.65Zm-6.225 12.706c-3.853 0-6.298-2.799-6.298-6.26 0-3.463 2.445-6.262 6.298-6.262 3.743 0 6.188 2.8 6.188 6.261 0 3.425-2.445 6.261-6.188 6.261ZM76.501 37.986c-.852-4.125-4.52-7.145-9.336-7.145-5.817 0-9.707 4.235-9.707 9.612s3.89 9.65 9.707 9.65c4.816 0 8.484-3.094 9.336-7.256h-3.667c-.741 2.32-2.927 3.904-5.632 3.904-3.78 0-6.225-2.836-6.225-6.298s2.446-6.26 6.225-6.26c2.816 0 4.89 1.656 5.632 3.793H76.5ZM95.319 34.008h-.149c-1.37-1.842-3.594-3.13-6.558-3.167-5.446-.074-9.337 3.94-9.337 9.612 0 5.709 3.965 9.723 9.3 9.65 3.038-.037 5.224-1.4 6.595-3.352h.148v2.836h3.483v-18.23h-3.483v2.65Zm-6.225 12.706c-3.854 0-6.299-2.799-6.299-6.26 0-3.463 2.445-6.262 6.299-6.262 3.742 0 6.187 2.8 6.187 6.261 0 3.425-2.445 6.261-6.187 6.261ZM118.801 34.192h-.148c-1.371-1.952-3.669-3.315-6.596-3.352-5.335-.073-9.299 3.941-9.299 9.65 0 5.672 3.89 9.686 9.337 9.613 2.889-.038 5.187-1.326 6.521-3.168h.185v2.652h3.483V23.069h-3.483v11.123Zm-6.225 12.559c-3.853 0-6.298-2.799-6.298-6.261s2.445-6.261 6.298-6.261c3.743 0 6.188 2.836 6.188 6.26 0 3.463-2.445 6.262-6.188 6.262ZM135.544 30.84c-5.631 0-9.485 4.31-9.485 9.65 0 5.193 3.631 9.613 9.559 9.613 4.298 0 7.744-2.32 8.967-6.188h-3.668c-.815 1.731-2.779 2.836-5.15 2.836-3.335 0-5.706-2.21-5.966-5.046h15.154c.482-6.077-3.334-10.864-9.411-10.864Zm-.074 3.352c2.927 0 5.113 1.805 5.669 4.42h-11.263c.518-2.579 2.704-4.42 5.594-4.42ZM169.926 30.877c-2.816 0-4.965 1.363-6.15 3.536h-.112c-1.074-2.136-3.075-3.536-5.817-3.536-2.445 0-4.297 1.29-5.409 3.094h-.148v-2.615h-3.372v18.23h3.52v-9.354c0-3.425 1.816-5.93 4.558-6.003 2.593-.074 4.112 1.768 4.112 4.53v10.828h3.52v-9.65c0-4.088 2.445-5.708 4.557-5.708 2.557 0 4.076 1.768 4.076 4.53v10.828h3.519V38.39c0-4.419-2.519-7.513-6.854-7.513ZM189.381 46.677l-6.298-15.32h-3.891l8.374 19.96-.037.075c-.593 1.51-1.26 2.062-2.89 2.062h-4.335v3.498h4.335c3.186 0 4.89-1.436 6.076-4.53l8.077-21.066h-3.594l-5.817 15.321Z"/></g><defs><clipPath id="a"><path fill="#fff" d="M0 0h199v57H0z"/></clipPath></defs></svg>
